X:765
T: Mrs.Galvin's Fancy
S: "Ceol Rince na hEireann" 1/211
Z: B.Black
L: 1/8
M: C|
R: hornpipe
K: D
(3ABc|d2 AG FEFD|GFGE FEFD|(3dcd AG FEFD|E2 e>e egfe|
(3ded AG FEFD|G3E F2 DA|d3e fdAG|FGEF D2 :|
(3ABc|dcde fefg|agab agfe|dcde f3g|(3agf (3gfe dcBA|
d3e fefg|agab agfe|dcde fdAG|(3FGA EF D2 :|
